X:1
T:La dea che nel mar
T:Madalena Casulana
T:Source : Secondo libro de madrigali a quattro voci---Venetia---G.Scotto---1570. Editor : André Vierendeels (03/09/17).
T:La dea che nel mar
T:Terza parte
T:©
T:©
T:©
T:©
T:©
C:Madalena Casulana
Z:©
%%score [ 1 [ 2 3 ] 4 ]
L:1/8
Q:1/4=120
M:4/4
K:C
V:1 treble nm="Soprano" snm="S"
V:2 treble nm="Alto 1" snm="A 1"
V:3 treble nm="Alto 2" snm="A 2"
V:4 treble-8 nm="Tenor" snm="T"
V:1
 G4 c4 | e2 g3 f e2 | d4 c4- | c4 B4 | z2 A2 A2 E2 | F4 E4 | A4 A4 | A2 c3 c e2 | e2 g3 f/e/ d2 | %9
w: La dea|che nel _ _|mar nac-|* que,|e'i par- go-|let- ti'a-|mo- ri,|rob- ba- va no|da lei _ _ _|
 e2 c2 A2 d2- | dc B2 A2 A2- | A2 d4 d2 | e2 d2 d4 | d2 G2 c2 c2 | c4 c4 | z4 z2 e2 | gfed e2 c2 | %17
w: le fa- ci'el ar-|* * * me fio-|* ria dov'|el- la gia-|que, dov' el- la|giac- que,|la|riv'- * * * * e'i|
 B2 A2 d4 | ^c4 z2 c2 | c3 c c2 c2 | B2 A3 A A2 | ^G4 G4 |[M:3/4] A2 A2 A2 | A4 G2 | A4 A2 | %25
w: bian- chi mar-|mi, spi-|ra va- no fe-|lic' a- ra- bi'o-|do- ri,|o- gni be-|ni- gna|stel- la,|
 F2 F2 F2 | E4 D2 |[M:4/4] E4 E2 e2 | f3 e d2 c2 | B2 d2 ^c4 | d4 z2 d2 | B4 c4 | B2 g2 d2 e2 | %33
w: in que- sta|part' e'in|quel- la u-|scia _ _ dal|o- ri- zon-|te, e|piu non|par, e piu non|
 d4 c2 c2- | cBcd efgf | edcB c2 B2 | d2 d2 d4 | B8 |] %38
w: par che gi-||* * * * * ri|ne tra- mon-|ti.|
V:2
 z4 C4 | G2 E4 c2- | c2 B2 G4 | G2 A2 G2 G2 | F4 E2 A2 | A6 E2 | F4 F4 | E4 E2 E2 | G3 G B2 B2 | %9
w: La|dea che nel|_ mar nac-|que, che nel mar|nac- que, e'i|par- go-|let- ti'a-|mo- ri, rob-|ba- va no da|
 c2 A4 F2 | D2 G4 ^F2 | z2 D2 A2 B2 | c2 B2 A4 | D2 E2 EE F2- | FE/D/ E2 F2 G2 | A4 G2 c2 | %16
w: lei le fa-|ci'el ar- me|fio- ria dov'|el- la gia-|que, dov' el- la giac-|* * * * que, la|ri- va, la|
 CDEF G2 A2 | G2 E2 A4 | A4 z2 A2 | F3 F F2 E2 | D2 ^C3 C D2 | B,4 B,4 |[M:3/4] D2 D2 D2 | A,4 D2 | %24
w: riv'- * * * * e'i|bian- chi mar-|mi, spi-|ra va- no fe-|lic' a- ra- bi'o-|do- ri,|o- gni be-|ni- gna|
 E4 E2 | A2 A2 A2 | A4 G2 |[M:4/4]"^-natural" A4 A2 c2 | c3 B A2 E2 | G2 A2 A4 | %30
w: stel- la,|in que- sta|part' e'in|quel- la u-|scia _ _ dal|o- ri- zon-|
"^-natural" ^F4 z2 F2 | G4 G4 | G2 B2 B2 c2 | B4 G2 A2- | AG/F/ GF EDEF | G2 A4 D2 | %36
w: te, e|piu non|par, e piu non|par che gi-||* ri ne|
 A2 G3 ^F/E/ F2 | G8 |] %38
w: tra- mon- * * *|ti.|
V:3
 z8 | C4 G4- | G4 E2 E2- | E2 F2 D4- | D4 A,4 | z2 D2 D2 ^C2 | D2 A,2 D4 | C2 A,2 C3 C | E2 E2 G4 | %9
w: |La dea|_ che nel|_ mar nac-|* que,|e'i par- go-|let- ti'a- mo-|ri, rob- ba- va|no da lei|
 C4 D2 A2 | G2 D2 z2 D2 | A4 ^F2 G2 | C2 G3 ^F/E/ F2 | G2 G2 G2 A2 | G4 A2 E2 | F2 ED EFGF | %16
w: le fa- ci'el|ar- me fio-|ria dov' el-|la gia- * * *|qie, dov' el- la|giac- que, la|ri- * * * * * *|
 ED C4 F2 | D2 C2 F4 | E4 z2 F2 | A3 A A2 G2 | G2 E3 E F2 | E4 E4 |[M:3/4] F2 F2 F2 | E4 D2 | %24
w: * * va e'i|bian- chi mar-|mi, spi-|ra va- no fe-|lic' a- ra- bi'o-|do- ri,|o- gni be-|ni- gna|
 ^C4 C2 | D2 D2 D2 | A,4 D2 |[M:4/4] ^C4 C2 A2 | A3 G F2 C2 | D2 F2 E4 | A4 z2 A2 | D4 E4 | %32
w: stel- la,|in que- sta|part' e'in|quel- la u-|scia _ _ dal|o- ri- zon-|te, e|piu non|
 D2 D2 G2 C2 | G3 F E2 F2 | EDEF GFED | CD E4 G2 | D2 B,2 A,4 | G,8 |] %38
w: par, e piu non|par _ _ che|gi- * * * * * * *|* * * ri|ne tra- mon-|ti.|
V:4
 z8 | z4 C4 | G4 C2 c2- | c2 F2 G4 | D2 d2 d2 ^c2 | d4 A4 | D8 | A4 A,2 C2- | CC E2 E2 G2 | %9
w: |La|dea che nel|_ mar nac-|que, e'i par- go-|let- ti'a-|mo-|ri, rob- ba-|* va no da lei|
 z2 A2 F2 D2 | G4 D4 | z8 | z2 G2 d4 | B2 c4 F2 | c4 F2 C2 | FGAB c4 | c4 z2 F2 | G2 A2 D4 | %18
w: le fa- ci'el|ar- me,||fio- ria|dov' el- la|giac- que, la|ri- * * * *|va e'i|bian- chi mar-|
 A4 z2 F2 | F3 F F2 C2 | G2 A3 A D2 | E4 E4 |[M:3/4] D2 D2 d2 | c4 B2 | A4 A2 | D2 D2 d2 | c4 B2 | %27
w: mi spi-|ra va- no fe-|lic' a- ra- bi'o-|do- ri,|o- gni be-|ni- gna|stel- la,|in que- sta|part' e'in|
[M:4/4] A4 A2 A2 | F6 A2 | G2 D2 A4 | D4 z2 D2 | G4 C4 | G4 z4 | z2 G2 c2 F2 | c4 c2 c2- | %35
w: quel- la u-|scia dal|o- ri- zon-|te, e|piu non|par,|e piu non|par che gi-|
 cBAG A2 G2 | ^F2 G2 D4 | G,8 |] %38
w: * * * * * ri|ne tra- mon-|ti.|

